src/assets/spoon.svg

<svg width="40" height="10" viewBox="0 0 40 10" fill="none" xmlns="http://www.w3.org/2000/svg">
<path d="M33.5014 9.5C37.0847 9.5 39.9998 7.48129 39.9998 4.99995C39.9998 2.51861 37.0847 0.5 33.5014 0.5C30.112 0.5 27.3219 2.30637 27.0298 4.6018H22.3527V3.6552L-0.000213623 3.6552V6.34446L22.3528 6.34446V5.39798H27.0299C27.3221 7.69352 30.112 9.5 33.5014 9.5ZM21.4896 5.54839L0.863079 5.54839V4.45161H21.4896V5.54839ZM27.866 4.99995C27.866 2.95778 30.3942 1.2964 33.5015 1.2964C36.6088 1.2964 39.137 2.95778 39.137 4.99995C39.137 7.04222 36.6088 8.7037 33.5015 8.7037C30.3942 8.7037 27.866 7.04222 27.866 4.99995Z" fill="#DCCA87"/>
</svg>

<svg width="40" height="10" fill="none" xmlns="http://www.w3.org/2000/svg"><path d="M33.501 9.5C37.085 9.5 40 7.481 40 5S37.085.5 33.5.5c-3.389 0-6.18 1.806-6.471 4.102h-4.677v-.947H0v2.69h22.353v-.947h4.677C27.322 7.694 30.112 9.5 33.5 9.5ZM21.49 5.548H.863V4.452H21.49v1.096ZM27.866 5c0-2.042 2.528-3.704 5.636-3.704 3.107 0 5.635 1.662 5.635 3.704 0 2.042-2.528 3.704-5.636 3.704-3.107 0-5.635-1.662-5.635-3.704Z" fill="#DCCA87"/></svg>
